localPackages/DesignSystem/Sources/DesignSystem/Resources/Assets.xcassets/IconSet/ic-pause-filled.imageset/ic-pause-filled.svg

<svg width="24" height="24" viewBox="0 0 24 24" fill="none" xmlns="http://www.w3.org/2000/svg">
<g id="ic-pause-filled">
<g id="Icon">
<path d="M6 6.5C6 5.7268 6.67157 5 7.5 5H8.5C9.32843 5 10 5.7268 10 6.5V17.5C10 18.2732 9.32843 19 8.5 19H7.5C6.67157 19 6 18.2732 6 17.5V6.5Z" fill="#0F0F0F"/>
<path d="M14 6.5C14 5.7268 14.6716 5 15.5 5H16.5C17.3284 5 18 5.7268 18 6.5V17.5C18 18.2732 17.3284 19 16.5 19H15.5C14.6716 19 14 18.2732 14 17.5V6.5Z" fill="#0F0F0F"/>
</g>
</g>
</svg>

<svg xmlns="http://www.w3.org/2000/svg" width="24" height="24" viewBox="0 0 24 24">
  <g class="ic-pause-filled">
    <g class="Icon">
      <path d="M6 6.5C6 5.727 6.672 5 7.5 5h1c.828 0 1.5.727 1.5 1.5v11c0 .773-.672 1.5-1.5 1.5h-1c-.828 0-1.5-.727-1.5-1.5v-11Z"/>
      <path d="M14 6.5c0-.773.672-1.5 1.5-1.5h1c.828 0 1.5.727 1.5 1.5v11c0 .773-.672 1.5-1.5 1.5h-1c-.828 0-1.5-.727-1.5-1.5v-11Z"/>
    </g>
  </g>
</svg>
